static/B2C/odnoklassniki.svg

<?xml version="1.0" encoding="UTF-8"?>
<svg width="26px" height="26px" viewBox="0 0 26 26" version="1.1" xmlns="http://www.w3.org/2000/svg" xmlns:xlink="http://www.w3.org/1999/xlink">
    <!-- Generator: Sketch 52.4 (67378) - http://www.bohemiancoding.com/sketch -->
    <title>odnoklassniki</title>
    <desc>Created with Sketch.</desc>
    <g id="Plans" stroke="none" stroke-width="1" fill="none" fill-rule="evenodd">
        <g id="5-product-plans" transform="translate(-283.000000, -768.000000)" fill-rule="nonzero">
            <g id="soc" transform="translate(123.000000, 768.000000)">
                <g id="social_2" transform="translate(1.000000, 0.000000)">
                    <g id="odnoklassniki" transform="translate(159.000000, 0.000000)">
                        <circle id="Oval-4" fill="#FF8400" cx="13" cy="13" r="13"></circle>
                        <path d="M14.7583768,17.2738313 C15.6435857,17.069392 16.4960044,16.7140115 17.2804557,16.214186 C17.8743221,15.8343492 18.0539771,15.0390101 17.6792143,14.4347359 C17.3045772,13.8304616 16.5201259,13.6483132 15.9241238,14.02815 C14.1449117,15.1633296 11.8551278,15.1611642 10.0757901,14.02815 C9.47978795,13.6483132 8.69533658,13.8304616 8.3206995,14.4347359 C7.94606241,15.0368447 8.12571735,15.8343492 8.71945809,16.214186 C9.50390945,16.7140115 10.3563282,17.0695194 11.2415371,17.2738313 L8.8159441,19.7353827 C8.31856374,20.2396664 8.31856374,21.0550036 8.8159441,21.5592872 C9.06570215,21.8103464 9.39008611,21.9369586 9.71434444,21.9369586 C10.0408641,21.9369586 10.3651225,21.8103464 10.6150062,21.5592872 L13.0011504,19.1398975 L15.3874203,21.5592872 C15.8848007,22.0635709 16.6889764,22.0635709 17.1863568,21.5592872 C17.6837371,21.0550036 17.6837371,20.2373736 17.1863568,19.7353827 L14.7583768,17.2738313 Z M13.0010248,7.45654011 C13.9936498,7.45654011 14.7999612,8.27404267 14.7999612,9.28044462 C14.7999612,10.2845538 13.9936498,11.1021837 13.0010248,11.1021837 C12.0106612,11.1021837 11.2020884,10.2846812 11.2020884,9.28044462 C11.2020884,8.27404267 12.0106612,7.45654011 13.0010248,7.45654011 Z M13.0010248,13.6814311 C15.396089,13.6814311 17.344026,11.706458 17.344026,9.28044462 C17.344026,6.84997308 15.396089,4.875 13.0010248,4.875 C10.6060862,4.875 8.65814927,6.84997308 8.65814927,9.27827922 C8.65814927,11.7065854 10.6060862,13.6814311 13.0010248,13.6814311 Z" id="Shape-Copy" fill="#FFFFFF"></path>
                    </g>
                </g>
            </g>
        </g>
    </g>
</svg>

<svg width="26" height="26" xmlns="http://www.w3.org/2000/svg"><g fill-rule="nonzero" fill="none"><circle fill="#FF8400" cx="13" cy="13" r="13"/><path d="M14.758 17.274a8.07 8.07 0 0 0 2.522-1.06c.594-.38.774-1.175.4-1.78a1.262 1.262 0 0 0-1.756-.406 5.452 5.452 0 0 1-5.848 0 1.262 1.262 0 0 0-1.755.407c-.375.602-.195 1.4.398 1.78.785.499 1.637.855 2.523 1.059l-2.426 2.461a1.301 1.301 0 0 0 0 1.824c.25.251.574.378.898.378.327 0 .651-.127.901-.378l2.386-2.42 2.386 2.42a1.259 1.259 0 0 0 1.8 0 1.301 1.301 0 0 0 0-1.824l-2.429-2.461zm-1.757-9.817c.993 0 1.799.817 1.799 1.823 0 1.005-.806 1.822-1.799 1.822-.99 0-1.799-.817-1.799-1.822 0-1.006.809-1.823 1.799-1.823zm0 6.224c2.395 0 4.343-1.975 4.343-4.4 0-2.431-1.948-4.406-4.343-4.406S8.658 6.85 8.658 9.278c0 2.429 1.948 4.403 4.343 4.403z" fill="#FFF"/></g></svg>
